src/pos-icons/nuke.svg

<svg height="24" viewBox="0 0 24 24" width="24" xmlns="http://www.w3.org/2000/svg"><path d="m14.04 12h-4.04v-1h-4.5a3.5 3.5 0 0 1 -3.5-3.5 3.5 3.5 0 0 1 3.5-3.5c1.03 0 1.95.44 2.59 1.15.41-1.8 1.99-3.15 3.91-3.15s3.5 1.35 3.91 3.15c.64-.71 1.56-1.15 2.59-1.15a3.5 3.5 0 0 1 3.5 3.5 3.5 3.5 0 0 1 -3.5 3.5h-4.46zm-4.04 4.9v-1.14h-5v-2h14v2h-4.96v1.16l5.96 2.16c.58.21 1 .76 1 1.42a1.5 1.5 0 0 1 -1.5 1.5h-15a1.5 1.5 0 0 1 -1.5-1.5c0-.66.42-1.21 1-1.42z"/></svg>

<?xml version="1.0" encoding="UTF-8"?><!DOCTYPE svg PUBLIC "-//W3C//DTD SVG 1.1//EN" "http://www.w3.org/Graphics/SVG/1.1/DTD/svg11.dtd"><svg xmlns="http://www.w3.org/2000/svg" xmlns:xlink="http://www.w3.org/1999/xlink" version="1.1" id="mdi-nuke" width="24" height="24" viewBox="0 0 24 24"><path d="M14.04,12H10V11H5.5A3.5,3.5 0 0,1 2,7.5A3.5,3.5 0 0,1 5.5,4C6.53,4 7.45,4.44 8.09,5.15C8.5,3.35 10.08,2 12,2C13.92,2 15.5,3.35 15.91,5.15C16.55,4.44 17.47,4 18.5,4A3.5,3.5 0 0,1 22,7.5A3.5,3.5 0 0,1 18.5,11H14.04V12M10,16.9V15.76H5V13.76H19V15.76H14.04V16.92L20,19.08C20.58,19.29 21,19.84 21,20.5A1.5,1.5 0 0,1 19.5,22H4.5A1.5,1.5 0 0,1 3,20.5C3,19.84 3.42,19.29 4,19.08L10,16.9Z" /></svg>
